X:6
T:Mileva ruchenitsa
R:rachenitsa
C:Ivan Milev
H:Played: AABBAABBCCDD solos AABB
O:Bulgaria
Z:id:hn-rachenitsa-6
M:2+2+3/16
L:1/16
Q:1/8=220
K:Ephr ^g
^G2A2 B2B | B2B2 B2A | BdcB A^GA | B2z2 z2E |
^G2A2 B2B | B2B2 B2A | ^GBAG FED |1 EF^GA B2E :|2 E2EB, E3 ||
|: BccB A2A | ABBA ^G2G | ^GAAG FED | EF^GA B2E |
dccB A2A | ABBA ^G2G | ^GAAG FED | E2EB, E3 :|
|: B2cd d2d | d2d2 d2c | cAc2 c2c | c2c2 c2B |
EFDE F^GA | BccB A^GF | ^GAAG FED | EF^GA B2E |
B2cd d2d | d2d2 d2c | cAc2 c2c | c2c2 c2B |
EFDE F^GA | BccB A^GF | ^GAAG FED | E2EB, E3 :|
|: EFDE F^GA | BccB A^GF | ^GAAG FED | EF^GA B2E |
A2A2 ABc | dccB A^GF | ^GAAG FED | E2EB, E3 :|

